Sources/FrostedUI/Resources/Icons.xcassets/lightbulb32.imageset/lightbulb-32.svg

<svg width="32" height="32" viewBox="0 0 32 32" fill="none" xmlns="http://www.w3.org/2000/svg" data-fui-icon="true">
  <path
    d="M16 0.5C22.4893 0.5 27.75 5.76065 27.75 12.25C27.75 16.1178 25.8806 19.5495 22.999 21.6895C22.3794 22.1495 21.9818 22.7801 21.9346 23.4414L21.8057 25.249C21.7041 26.6716 20.7614 27.8446 19.4854 28.2979C19.3341 30.0914 17.8326 31.5 16 31.5C14.1674 31.5 12.6649 30.0914 12.5137 28.2979C11.2381 27.8444 10.2959 26.6713 10.1943 25.249L10.0654 23.4414C10.0182 22.7801 9.62056 22.1495 9.00098 21.6895C6.11936 19.5495 4.25 16.1178 4.25 12.25C4.25 5.76065 9.51065 0.5 16 0.5ZM14.0654 28.5C14.2877 29.3623 15.0683 30 16 30C16.9317 30 17.7123 29.3623 17.9346 28.5H14.0654ZM16 2C10.3391 2 5.75 6.58908 5.75 12.25C5.75 15.6232 7.37845 18.6162 9.89551 20.4854C10.774 21.1377 11.4757 22.1342 11.5615 23.334L11.6904 25.1426C11.7652 26.1891 12.6363 27 13.6855 27H14.1299L12.0088 12.8613C11.9706 12.6065 12.0654 12.3498 12.2607 12.1816C12.4561 12.0135 12.7243 11.9574 12.9707 12.0332L14.3213 12.4492L15.6855 11.8193C15.885 11.7273 16.115 11.7273 16.3145 11.8193L17.6787 12.4492L19.0293 12.0332C19.2757 11.9574 19.5439 12.0135 19.7393 12.1816C19.9346 12.3498 20.0304 12.6065 19.9922 12.8613L17.8711 27H18.3145C19.3637 27 20.2348 26.1891 20.3096 25.1426L20.4385 23.334C20.5243 22.1342 21.226 21.1377 22.1045 20.4854C24.6215 18.6162 26.25 15.6232 26.25 12.25C26.25 6.58908 21.6609 2 16 2ZM14.6895 13.9307C14.5217 14.0081 14.3309 14.0211 14.1543 13.9668L13.6689 13.8174L15.6465 27H16.3545L18.3311 13.8174L17.8457 13.9668C17.6691 14.0211 17.4783 14.0081 17.3105 13.9307L16 13.3262L14.6895 13.9307Z"
    fill="currentColor"
  />
</svg>

<svg xmlns="http://www.w3.org/2000/svg" width="32" height="32" fill="none" data-fui-icon="true" viewBox="0 0 32 32"><path fill="currentColor" d="M16 .5c6.49 0 11.75 5.26 11.75 11.75 0 3.868-1.87 7.3-4.751 9.44-.62.46-1.017 1.09-1.064 1.751l-.13 1.808a3.5 3.5 0 0 1-2.32 3.049 3.499 3.499 0 0 1-6.971 0 3.5 3.5 0 0 1-2.32-3.049l-.129-1.808c-.047-.66-.444-1.291-1.064-1.751a11.74 11.74 0 0 1-4.751-9.44C4.25 5.76 9.51.5 16 .5m-1.935 28a1.999 1.999 0 0 0 3.87 0zM16 2C10.34 2 5.75 6.59 5.75 12.25c0 3.373 1.628 6.366 4.146 8.235.878.653 1.58 1.65 1.665 2.849l.13 1.809A2 2 0 0 0 13.684 27h.445l-2.121-14.139a.75.75 0 0 1 .962-.828l1.35.416 1.364-.63c.2-.092.43-.092.63 0l1.364.63 1.35-.416a.75.75 0 0 1 .963.828L17.872 27h.442a2 2 0 0 0 1.996-1.857l.129-1.809c.085-1.2.787-2.196 1.666-2.849a10.24 10.24 0 0 0 4.145-8.235C26.25 6.59 21.66 2 16 2m-1.31 11.93a.75.75 0 0 1-.536.037l-.485-.15L15.646 27h.709l1.976-13.183-.485.15a.75.75 0 0 1-.535-.036L16 13.326z"/></svg>
